svg/format_annotation_minus.svg

<svg xmlns="http://www.w3.org/2000/svg" viewBox="0 0 24 24"><path d="M10.5 7h-2L3 21h2.2l1.1-3h6.2l1.1 3H16zm-3.4 9 2.4-6.3 2.4 6.3zM22 7h-8V5h8z"/></svg>

<?xml version="1.0" encoding="UTF-8"?><!DOCTYPE svg PUBLIC "-//W3C//DTD SVG 1.1//EN" "http://www.w3.org/Graphics/SVG/1.1/DTD/svg11.dtd"><svg xmlns="http://www.w3.org/2000/svg" xmlns:xlink="http://www.w3.org/1999/xlink" version="1.1" id="mdi-format-annotation-minus" width="24" height="24" viewBox="0 0 24 24"><path d="M10.5,7H8.5L3,21H5.2L6.3,18H12.5L13.6,21H16L10.5,7M7.1,16L9.5,9.7L11.9,16H7.1M22,7H14V5H22V7Z" /></svg>
